X:369
T: Lebe wohl, vergiá mein nicht (97a), S. 246
N: T0258
O: Luxemburg
S: Singendes Volk, Esch-Alzette 1937 posth.]
N: Lullingen, 1900, mitgeteilt: hhh Heinrich Godefroid (Lehrer);
N: (97b)- Stegen, hhh Nikolaus Pletschette, 5.7.1919
R: Liebeslieder]
M: 2/4
L: 1/8
K: G
 | d2B2 | d2B2 | ABcd | c2B2
d2B2 | d2B2 | ABcd | c2B2
e2e2 | e2dc | ddde | dcB2
ABcd | e2dc | d2BB | B2z2

